X:373
T:William and Nancy - Bledington
S:OY(AB)2(AC)2
N:Tune as played for Grand Union Morris
N:www.grandunionmorris.co.uk
M:6/8
L:1/8
Q:100
K:G
"A" D | G2 G GBd | e2 e dBG | A2 d BAG | E2 F G2 :||
"B"d | e2 d B2 d | gfe d2 d | e2 d B2 d | gfe d2 c |  B2 B Bcd | e2 e dB
G | A2 d BAG | E2 F G2 :||
"C"z2 d3 | e3 d3 | B2c d3 | g2f e3 | d3 d3 | e3 d3 | B2 d |  gfe d2 c |
 B2 B Bcd | e2 e dB
G | A2 d BAG | E2 F G2 :||
